dist/img/pacifier.svg

<svg width="40" height="40" viewBox="0 0 40 40" fill="none" xmlns="http://www.w3.org/2000/svg">
<g clip-path="url(#clip0_79_114)">
<path d="M37.2001 16.3151C39.0239 14.4909 40.0186 12.0655 40.0006 9.48558C39.9826 6.90614 38.9537 4.49442 37.1032 2.69458C35.2704 0.911772 32.8432 -0.0447889 30.267 0.00239849C27.6887 0.0491171 25.2941 1.09443 23.5242 2.9456C21.9883 4.55208 21.0562 6.65793 20.8998 8.87527C20.8801 9.15457 20.8498 9.43152 20.8105 9.70597C18.6963 8.27918 16.5717 7.21504 14.7015 6.65965C11.2574 5.63676 9.45158 6.50489 8.5433 7.41332C7.00104 8.95582 6.93385 11.6923 8.34604 15.1344C6.61737 15.776 5.07425 16.767 3.75402 18.0874C-1.25004 23.0924 -1.25004 31.2359 3.75402 36.2409C6.17823 38.6655 9.40135 40.0008 12.8298 40.0008C16.2581 40.0008 19.4812 38.6655 21.9055 36.2409C23.2069 34.9392 24.218 33.3626 24.8576 31.6484C26.5008 32.3228 27.9833 32.6605 29.2516 32.6605C30.6397 32.6605 31.7718 32.2569 32.5778 31.4508C33.4878 30.5406 34.3564 28.7306 33.3265 25.2764C32.7688 23.4059 31.7036 21.2828 30.277 19.1703C30.53 19.1378 30.785 19.1133 31.0418 19.0972C33.3653 18.9511 35.5524 17.9631 37.2001 16.3151ZM20.2476 34.5837C18.2662 36.5655 15.6318 37.6569 12.8297 37.6569C10.0275 37.6569 7.39315 36.5655 5.41175 34.5837C1.32113 30.4925 1.32113 23.8356 5.41175 19.7443C6.54135 18.6145 7.8694 17.7798 9.36104 17.2593C9.77424 18.022 10.2422 18.7942 10.758 19.5644C9.44025 19.92 8.24682 20.6091 7.26104 21.5949C4.19081 24.6657 4.19081 29.6622 7.26104 32.733C8.74846 34.2206 10.726 35.0399 12.8296 35.0399C14.9332 35.0399 16.9109 34.2206 18.3983 32.733C19.371 31.76 20.0683 30.5494 20.4272 29.2353C21.1974 29.7513 21.9697 30.2195 22.7324 30.6328C22.2155 32.1095 21.3619 33.4693 20.2476 34.5837ZM12.2774 21.6532C13.1507 22.7642 14.1093 23.8476 15.1271 24.8656C16.1432 25.8818 17.2243 26.839 18.3331 27.7113C18.2078 28.9791 17.6433 30.173 16.7405 31.076C15.6959 32.1209 14.307 32.6962 12.8296 32.6962C11.3524 32.6962 9.96346 32.1209 8.91885 31.076C6.76214 28.9189 6.76214 25.4091 8.91885 23.252C9.80697 22.3638 10.9338 21.8167 12.1776 21.67C12.2115 21.6661 12.2445 21.6599 12.2774 21.6532ZM31.08 25.9459C31.6183 27.7511 31.5599 29.1536 30.9199 29.7937C30.0904 30.6234 28.0833 30.4756 25.5508 29.3986C22.7018 28.187 19.5068 25.9308 16.785 23.2086C14.0633 20.4864 11.8074 17.2908 10.596 14.4412C9.519 11.908 9.37135 9.90019 10.2011 9.07035C10.8392 8.43223 12.2363 8.37246 14.0341 8.90644C15.8808 9.45488 18.0418 10.5892 20.1866 12.1264C19.648 13.5419 18.8288 14.8253 17.7678 15.8866L17.5127 16.1417C17.0551 16.5993 17.0551 17.3412 17.5126 17.7988L22.0809 22.3677C22.3007 22.5877 22.599 22.7112 22.91 22.7111C23.2209 22.711 23.5191 22.5874 23.739 22.3674L23.7955 22.3108C24.9324 21.1737 26.3119 20.3085 27.8318 19.7599C29.3815 21.9147 30.526 24.088 31.08 25.9459ZM22.942 19.9141L19.9804 16.9519C21.879 14.7935 23.0283 12.0146 23.2381 9.04012C23.3562 7.36676 24.0595 5.77747 25.2187 4.56505C26.5533 3.16919 28.3612 2.38099 30.3097 2.3456C32.2579 2.31036 34.0875 3.03075 35.4688 4.37434C36.8661 5.7334 37.643 7.55434 37.6565 9.50176C37.6701 11.4496 36.9193 13.2808 35.5423 14.658C34.2986 15.902 32.6479 16.6478 30.8947 16.7578C27.9249 16.9444 25.1404 18.056 22.942 19.9141Z" fill="#303030"/>
</g>
<defs>
<clipPath id="clip0_79_114">
<rect width="40" height="40" fill="white"/>
</clipPath>
</defs>
</svg>

<svg width="40" height="40" fill="none" xmlns="http://www.w3.org/2000/svg"><g clip-path="url(#a)"><path d="M37.2 16.315a9.496 9.496 0 0 0 2.8-6.83 9.498 9.498 0 0 0-2.897-6.79A9.48 9.48 0 0 0 30.267.002a9.496 9.496 0 0 0-6.743 2.944 9.573 9.573 0 0 0-2.624 5.93c-.02.279-.05.556-.09.83-2.114-1.427-4.238-2.491-6.108-3.046-3.445-1.023-5.25-.155-6.159.753-1.542 1.543-1.61 4.28-.197 7.721a12.696 12.696 0 0 0-4.592 2.953c-5.004 5.005-5.004 13.149 0 18.154A12.75 12.75 0 0 0 12.83 40a12.75 12.75 0 0 0 9.075-3.76 12.888 12.888 0 0 0 2.953-4.593c1.643.675 3.125 1.012 4.394 1.012 1.388 0 2.52-.403 3.326-1.21.91-.91 1.778-2.72.748-6.174-.557-1.87-1.622-3.993-3.049-6.106.253-.032.508-.057.765-.073a9.551 9.551 0 0 0 6.158-2.782ZM20.248 34.584a10.42 10.42 0 0 1-7.418 3.073 10.42 10.42 0 0 1-7.418-3.073c-4.09-4.092-4.09-10.748 0-14.84A10.376 10.376 0 0 1 9.36 17.26c.413.763.881 1.535 1.397 2.305a7.792 7.792 0 0 0-3.497 2.03c-3.07 3.072-3.07 8.068 0 11.139a7.823 7.823 0 0 0 5.569 2.307c2.103 0 4.08-.82 5.568-2.307a7.894 7.894 0 0 0 2.03-3.498c.77.516 1.542.985 2.304 1.398a10.525 10.525 0 0 1-2.484 3.95Zm-7.97-12.93a36.228 36.228 0 0 0 2.85 3.212 36.243 36.243 0 0 0 3.205 2.845 5.54 5.54 0 0 1-1.592 3.365 5.494 5.494 0 0 1-3.911 1.62 5.494 5.494 0 0 1-3.911-1.62 5.54 5.54 0 0 1 0-7.824 5.473 5.473 0 0 1 3.259-1.582c.033-.004.066-.01.1-.017Zm18.802 4.292c.538 1.805.48 3.208-.16 3.848-.83.83-2.837.682-5.37-.395-2.848-1.212-6.043-3.468-8.765-6.19-2.722-2.723-4.978-5.918-6.189-8.768-1.077-2.533-1.225-4.54-.395-5.37.638-.639 2.035-.699 3.833-.165 1.847.549 4.008 1.683 6.153 3.22a10.678 10.678 0 0 1-2.42 3.76l-.254.256a1.172 1.172 0 0 0 0 1.657l4.568 4.569a1.171 1.171 0 0 0 1.658 0l.056-.057a10.956 10.956 0 0 1 4.037-2.551c1.55 2.155 2.694 4.328 3.248 6.186Zm-8.138-6.032-2.962-2.962c1.899-2.159 3.048-4.937 3.258-7.912a7.225 7.225 0 0 1 1.98-4.475 7.169 7.169 0 0 1 5.092-2.22 7.152 7.152 0 0 1 5.159 2.03 7.17 7.17 0 0 1 2.188 5.127 7.169 7.169 0 0 1-2.115 5.156 7.207 7.207 0 0 1-4.647 2.1c-2.97.186-5.755 1.298-7.953 3.156Z" fill="#303030"/></g><defs><clipPath id="a"><path fill="#fff" d="M0 0h40v40H0z"/></clipPath></defs></svg>
